PortableApps/LibreOfficePortable/App/libreoffice/help/media/icon-themes/cmd/lc_textattributes.svg

<svg viewBox="0 0 24 24" xmlns="http://www.w3.org/2000/svg"><path d="m10.048828 2-7.048828 20h2.9863281c.3203885 0 .587189-.090762.8007813-.271484.2233007-.190764.3735021-.396305.4511718-.617188l1.2089844-4.111328h7.1210934l1.222657 4.126953c.097088.251003.247289.462129.451172.632813.203883.160642.476602.240234.816406.240234h2.941406l-7.048828-20zm1.9375 3.6445312c.126214.4919681.250741.949407.376953 1.3710938.126215.4116465.248731.7727394.365235 1.0839844l1.964843 6.4003906h-5.3867184l1.9648434-6.3847656c.106796-.3112449.223396-.6779228.34961-1.0996094.126215-.4216868.248729-.8791258.365234-1.3710938z" fill="#696969"/><g fill="#eac282"><rect height="1" ry=".5" width="6" x="1" y="1"/><rect height="6" ry=".5" width="1" x="1" y="1"/><path d="m2.4999352 7.4999941 5.0000589-5.0000589v5.0000589z" fill-rule="evenodd" stroke="#eac282" stroke-linecap="round" stroke-linejoin="round" stroke-width="1.000012"/></g></svg>

<svg viewBox="0 0 24 24" xmlns="http://www.w3.org/2000/svg">
  <path
     style="fill:#696969"
     d="M 10.048828 2 L 3 22 L 5.9863281 22 C 6.3067166 22 6.5735171 21.909238 6.7871094 21.728516 C 7.0104101 21.537752 7.1606115 21.332211 7.2382812 21.111328 L 8.4472656 17 L 15.568359 17 L 16.791016 21.126953 C 16.888104 21.377956 17.038305 21.589082 17.242188 21.759766 C 17.446071 21.920408 17.71879 22 18.058594 22 L 21 22 L 13.951172 2 L 10.048828 2 z M 11.986328 5.6445312 C 12.112542 6.1364993 12.237069 6.5939382 12.363281 7.015625 C 12.489496 7.4272715 12.612012 7.7883644 12.728516 8.0996094 L 14.693359 14.5 L 9.3066406 14.5 L 11.271484 8.1152344 C 11.37828 7.8039895 11.49488 7.4373116 11.621094 7.015625 C 11.747309 6.5939382 11.869823 6.1364992 11.986328 5.6445312 z "
     id="path2" />
  <g
     style="fill:#eac282">
    <rect
       height="1"
       ry="0.5"
       width="6"
       x="1"
       y="1"
       />
    <rect
       height="6"
       ry="0.5"
       width="1"
       x="1"
       y="1"
       id="rect8" />
    <path
       style="fill-rule:evenodd;stroke:#eac282;stroke-width:1.00001204;stroke-linecap:round;stroke-linejoin:round"
       inkscape:connector-curvature="0"
       d="M 2.4999352,7.4999941 7.4999941,2.4999352 v 5.0000589 z"
       />
  </g>
</svg>
